X:68
T:Sean Ryan's Jig                                                                                   
M:6/8                                                                                               
L:1/8                                                                                               
K:ADor                                                                                              
AB|c2 A (3Bcd B|AGE DB,G,|A,3 EDB,|DEG AGE|\                                                        
c2 A (3Bcd B| AGE DB,G,|(3A,B,C E2 EDE|DB,G, A,2 B :|                                               
cBA a3|bag edB|GBd gfg|GBd cBA|\                                                                    
[c3G3] d3|ede gab|age dBG|EFG A2 B :|
